img/coolroof-color.svg

<svg xmlns="http://www.w3.org/2000/svg" width="95" height="100" viewBox="0 0 104 108" fill="none">
  <path d="M5.69523 44.2079C3.83176 43.5542 2.81458 42.236 1.91132 40.9421C0.934828 39.5479 2.06322 38.7938 3.06955 37.8065C11.3019 29.7314 20.1229 22.348 28.8788 14.8616C33.802 10.6545 38.7143 6.34982 43.4259 1.85795C45.8535 -0.455793 47.9232 -0.830116 51.0669 2.00714C58.6917 8.89142 67.3717 16.2151 75.7641 23.6419C81.01 28.3101 85.7758 33.1464 91.2198 37.5949C92.9992 39.0488 94.2225 40.2586 91.9088 42.5669C90.0155 44.4548 88.9956 45.3607 86.5353 43.1284C73.9413 31.698 60.764 20.2106 48.2324 9.43392C46.1573 7.6491 45.2866 8.7124 44.1718 9.76755C33.9647 19.4213 14.0632 36.9683 14.0632 36.9683C14.0632 36.9683 8.43755 42.179 5.69252 44.2052L5.69523 44.2079Z" fill="#EFC73C"/>
  <path d="M25.5913 12.9627L15.3435 21.1598C14.8282 21.5721 14.0632 21.2059 14.0632 20.5441V5.04226C14.0632 4.60826 14.4159 4.25293 14.8526 4.25293H25.1003C25.5343 4.25293 25.8897 4.60555 25.8897 5.04226V12.3497C25.8897 12.5884 25.7812 12.8162 25.594 12.9654L25.5913 12.9627Z" fill="#EFC73C"/>
  <path d="M68.161 76.5734C60.1945 76.4948 54.6475 70.8772 54.7207 62.9622C54.7912 55.1312 60.5362 49.6113 68.5326 49.6873C76.4097 49.7632 82.0978 55.5218 82.0137 63.3338C81.9296 71.1593 76.1791 76.6548 68.1637 76.5734H68.161ZM60.7641 63.3555C60.8482 68.4278 63.9377 71.7994 68.4431 71.7452C73.095 71.6882 76.0055 68.1457 75.8428 62.7398C75.6882 57.5996 72.6258 54.4043 68.0254 54.5833C63.5607 54.7569 60.68 58.237 60.7668 63.3582L60.7641 63.3555Z" fill="black"/>
  <path d="M51.3979 62.9863C51.4495 70.9556 45.9513 76.5107 37.9467 76.5731C29.9422 76.6355 24.1782 71.1102 24.1049 63.3118C24.0317 55.5026 29.7089 49.7792 37.6158 49.6843C45.5688 49.5894 51.3464 55.1662 51.3979 62.9863ZM45.3735 62.9619C45.284 57.8787 42.2135 54.5152 37.6972 54.5559C33.0941 54.5966 30.0209 58.2829 30.2026 63.5424C30.3789 68.6147 33.5254 71.886 38.0742 71.7286C42.5308 71.574 45.4603 68.0532 45.3708 62.9619H45.3735Z" fill="black"/>
  <path d="M38.0117 81.1084C45.981 81.103 51.623 86.6771 51.6094 94.5379C51.5958 102.388 45.9403 107.921 37.9575 107.902C30.0397 107.883 24.2811 102.225 24.2947 94.4782C24.3056 86.7151 30.0533 81.1165 38.0117 81.1111V81.1084ZM45.547 94.6193C45.5958 89.5225 42.6474 86.0234 38.2152 85.9176C33.6663 85.8091 30.5822 89.0994 30.4764 94.1744C30.3625 99.5777 33.2757 103.014 37.9765 103.02C42.566 103.023 45.5009 99.7703 45.5497 94.6193H45.547Z" fill="black"/>
  <path d="M82.1627 94.6546C82.0976 102.499 76.4014 107.981 68.405 107.894C60.4629 107.807 54.8073 102.146 54.8806 94.3589C54.9511 86.5985 60.7558 81.0298 68.7007 81.1057C76.6835 81.1817 82.2278 86.764 82.1627 94.6573V94.6546ZM60.9837 94.4539C60.9457 99.5615 63.8698 102.939 68.405 103.017C72.9837 103.096 76.0298 99.8463 76.1492 94.755C76.2712 89.5416 73.103 85.877 68.5054 85.9123C64.0569 85.9448 61.0244 89.3897 60.9864 94.4539H60.9837Z" fill="black"/>
  <path d="M1.80005 81.4639C5.0496 81.4639 8.07945 81.3473 11.0957 81.4938C14.9529 81.6782 18.7287 82.3808 20.1229 86.6773C21.5144 90.9685 19.6672 94.1394 15.9239 96.4531C18.1292 99.9549 20.2856 103.378 22.6102 107.072C18.2947 108.334 15.4004 107.634 13.4068 103.454C12.3326 101.2 11.8525 97.6032 7.37149 98.1403V107.368H1.80005V81.4694V81.4639ZM7.55051 94.8256C10.2955 93.5291 12.5008 92.9133 14.0442 91.5571C14.7196 90.963 14.5867 88.0851 13.8706 87.5806C12.216 86.4169 9.9809 86.0724 7.55051 85.2506V94.8256Z" fill="black"/>
  <path d="M19.5994 69.6402C20.4539 70.5354 21.3652 71.4874 22.2685 72.4314C17.1582 77.6556 8.81188 77.9377 3.8833 73.2424C-1.12394 68.4739 -1.32195 58.7686 3.48185 53.6556C8.25311 48.5805 16.217 48.3418 21.9457 53.2813C21.1455 54.3256 20.3372 55.3834 19.396 56.6122C15.1564 54.586 10.9303 52.831 7.55871 57.6456C5.34804 60.803 5.70609 66.4259 8.14461 69.293C10.7405 72.3473 13.7459 72.4721 19.5994 69.6402Z" fill="black"/>
  <path d="M87.3465 81.6104H103.629C103.692 82.85 103.757 84.1113 103.846 85.869H93.1837V92.6908H101.747V97.2695H93.1729V107.246H87.3438V81.6131L87.3465 81.6104Z" fill="black"/>
  <path d="M86.9639 50.2026H92.6411V71.4821H102.281V76.0662H86.9612V50.2053L86.9639 50.2026Z" fill="black"/>
</svg>

<svg width="104" height="108" fill="none" xmlns="http://www.w3.org/2000/svg"><path d="M5.695 44.208c-1.863-.654-2.88-1.972-3.784-3.266-.976-1.394.152-2.148 1.159-3.136 8.232-8.075 17.053-15.458 25.809-22.944 4.923-4.207 9.835-8.512 14.547-13.004 2.427-2.314 4.497-2.688 7.64.15 7.626 6.883 16.306 14.207 24.698 21.634 5.246 4.668 10.012 9.504 15.456 13.953 1.78 1.454 3.002 2.664.689 4.972-1.894 1.888-2.913 2.794-5.374.561-12.594-11.43-25.771-22.917-38.303-33.694-2.075-1.785-2.945-.722-4.06.334-10.207 9.653-30.109 27.2-30.109 27.2s-5.625 5.211-8.37 7.237l.002.003zm19.896-31.245L15.343 21.16a.788.788 0 01-1.28-.616V5.042a.79.79 0 01.79-.79H25.1a.79.79 0 01.79.79v7.308a.788.788 0 01-.296.615l-.003-.002z" fill="#EFC73C"/><path d="M68.161 76.573c-7.967-.078-13.514-5.696-13.44-13.61.07-7.832 5.815-13.352 13.812-13.276 7.877.076 13.565 5.835 13.48 13.647-.083 7.825-5.834 13.32-13.85 13.24h-.002zm-7.397-13.217c.084 5.072 3.174 8.443 7.68 8.39 4.651-.058 7.561-3.6 7.399-9.006-.155-5.14-3.217-8.336-7.818-8.157-4.464.174-7.345 3.654-7.258 8.775l-.003-.002zm-9.366-.37c.051 7.97-5.447 13.525-13.451 13.587-8.005.063-13.769-5.463-13.842-13.261-.073-7.81 5.604-13.533 13.51-13.628 7.954-.095 13.731 5.482 13.783 13.302zm-6.025-.024c-.089-5.083-3.16-8.447-7.676-8.406-4.603.04-7.676 3.727-7.494 8.986.176 5.073 3.322 8.344 7.871 8.187 4.457-.155 7.386-3.676 7.297-8.767h.002zm-7.361 18.146c7.969-.005 13.611 5.57 13.597 13.43-.013 7.85-5.669 13.383-13.651 13.364-7.918-.019-13.677-5.677-13.663-13.424.01-7.763 5.758-13.361 13.717-13.367v-.003zm7.535 13.511c.049-5.097-2.9-8.596-7.332-8.701-4.549-.109-7.633 3.181-7.739 8.256-.113 5.404 2.8 8.84 7.5 8.846 4.59.003 7.525-3.25 7.574-8.4h-.003zm36.616.036c-.065 7.844-5.762 13.326-13.758 13.239-7.942-.087-13.598-5.748-13.524-13.535.07-7.76 5.875-13.33 13.82-13.253 7.983.076 13.527 5.658 13.462 13.551v-.002zm-21.18-.201c-.037 5.108 2.887 8.485 7.422 8.563 4.579.079 7.625-3.17 7.744-8.262.122-5.213-3.046-8.878-7.644-8.843-4.448.033-7.48 3.478-7.519 8.542h-.002zM1.8 81.464c3.25 0 6.28-.117 9.296.03 3.857.184 7.633.887 9.027 5.183 1.391 4.291-.456 7.462-4.2 9.776 2.206 3.502 4.363 6.925 6.687 10.619-4.315 1.262-7.21.562-9.203-3.618-1.074-2.254-1.555-5.85-6.036-5.314v9.228H1.8V81.464zm5.75 13.362c2.746-1.297 4.95-1.913 6.494-3.269.676-.594.543-3.472-.173-3.976-1.655-1.164-3.89-1.509-6.32-2.33v9.575zM19.6 69.64c.854.895 1.765 1.847 2.668 2.791-5.11 5.225-13.456 5.507-18.385.811-5.007-4.768-5.205-14.473-.401-19.586 4.771-5.075 12.735-5.314 18.464-.375l-2.55 3.331c-4.24-2.026-8.466-3.781-11.837 1.034-2.211 3.157-1.853 8.78.586 11.647 2.596 3.054 5.6 3.18 11.454.347zm67.747 11.97h16.282l.217 4.259H93.184v6.822h8.563v4.578h-8.574v9.977h-5.83V81.613l.004-.003zm-.383-31.407h5.677v21.28h9.64v4.583h-15.32v-25.86l.003-.003z" fill="#000"/></svg>
